X:178
T:Ag Uirchill An Chreagain
Z:Jack Campin, http://www.campin.me.uk/
F:Jack Campin's Nine-Note Tunebook
% last edit 03-02-2013
B:Eamonn Jordan, "Whistle and Sing"
G:Sean-nos song
M:3/4
L:1/8
Q:1/4=120
K:G
D2|G4 AG|ED3  DE|GG3  B2|A4 G2|E4
BB|c4 BA|Bd3  BA|GG3  BB|A4 G2|E4
BA|G4 AG|ED3  DE|GG3  BB|A4 G2|E4
BB|c4 BA|Bd d3 c|BG B3 A|G4 G2|G4|]

